Pods/ProtonCore-UIFoundations/libraries/UIFoundations/Sources/Assets.xcassets/Images/IconSet/ic-lock-filled.imageset/ic-lock-filled.svg

<svg width="24" height="24" viewBox="0 0 24 24" fill="none" xmlns="http://www.w3.org/2000/svg">
<path fill-rule="evenodd" clip-rule="evenodd" d="M7.8 7.5H7.5C7.5 5.01472 9.51472 3 12 3C14.4853 3 16.5 5.01472 16.5 7.5H16.2H7.8ZM6 7.52878V7.5C6 4.18629 8.68629 1.5 12 1.5C15.3137 1.5 18 4.18629 18 7.5V7.52878C18.5883 7.56471 19.0057 7.64546 19.362 7.82698C19.9265 8.1146 20.3854 8.57354 20.673 9.13803C21 9.77976 21 10.6198 21 12.3V17.7C21 19.3802 21 20.2202 20.673 20.862C20.3854 21.4265 19.9265 21.8854 19.362 22.173C18.7202 22.5 17.8802 22.5 16.2 22.5H7.8C6.11984 22.5 5.27976 22.5 4.63803 22.173C4.07354 21.8854 3.6146 21.4265 3.32698 20.862C3 20.2202 3 19.3802 3 17.7V12.3C3 10.6198 3 9.77976 3.32698 9.13803C3.6146 8.57354 4.07354 8.1146 4.63803 7.82698C4.99429 7.64546 5.41168 7.56471 6 7.52878ZM12.706 14.8238C13.1785 14.5713 13.5 14.0732 13.5 13.5C13.5 12.6716 12.8284 12 12 12C11.1716 12 10.5 12.6716 10.5 13.5C10.5 14.0732 10.8215 14.5713 11.294 14.8238L10.6398 17.4409C10.5688 17.7249 10.7836 18 11.0763 18H12.9237C13.2164 18 13.4312 17.7249 13.3602 17.4409L12.706 14.8238Z" fill="#0C0C14"/>
</svg>

<svg xmlns="http://www.w3.org/2000/svg" width="24" height="24" viewBox="0 0 24 24">
  <g class="ic-lock-filled">
    <path fill-rule="evenodd" d="M7.8 7.5h-.3a4.5 4.5 0 0 1 9 0H7.8ZM6 7.529V7.5a6 6 0 1 1 12 0v.029c.588.036 1.006.116 1.362.298a3 3 0 0 1 1.311 1.311C21 9.78 21 10.62 21 12.3v5.4c0 1.68 0 2.52-.327 3.162a3 3 0 0 1-1.311 1.311c-.642.327-1.482.327-3.162.327H7.8c-1.68 0-2.52 0-3.162-.327a3 3 0 0 1-1.311-1.311C3 20.22 3 19.38 3 17.7v-5.4c0-1.68 0-2.52.327-3.162a3 3 0 0 1 1.311-1.311c.356-.182.774-.262 1.362-.298Zm6.706 7.295a1.5 1.5 0 1 0-1.412 0l-.654 2.617a.45.45 0 0 0 .436.559h1.848a.45.45 0 0 0 .436-.56l-.654-2.616Z" class="Icon"/>
  </g>
</svg>
